X: 14751
T: Gan Ainm
R: waltz
M: 3/4
K: Fmajor
|:Ff fe cA|c3 d/c/ A/G/F/A/|EF/G/ FG/A/ GA/B/|Ac Bd c A/G/|
Ff fe ce|e3 f/g/ a/g/f/e/|fa ag ge/f/|1 g4 f/d/c/A/:|2 g4 gf/e/||
|:dc/d/ ed/e/ fd|dc cA cA/G/|FE/F/ GF/G/ AG|GE ED EA/c/
dc/d/ ed/e/ fd|z[Fc] cA cF/E/|D>E F2 ED|1 E4 F/G/A/c/:|2 E3 A AG||

